packages/bezier-icons/icons/ai.svg

<svg width="24" height="24" viewBox="0 0 24 24" fill="none" xmlns="http://www.w3.org/2000/svg">
<path fill-rule="evenodd" clip-rule="evenodd" d="M6 4C3.79086 4 2 5.79086 2 8V16C2 18.2091 3.79086 20 6 20H18C20.2091 20 22 18.2091 22 16V8C22 5.79086 20.2091 4 18 4H6ZM8.30017 7C8.06183 7 7.85662 7.16823 7.80988 7.40194L6.00988 16.4019C5.948 16.7113 6.18465 17 6.50017 17H7.48037C7.71871 17 7.92391 16.8318 7.97066 16.5981L8.29027 15H11.4903L11.8099 16.5981C11.8566 16.8318 12.0618 17 12.3002 17H13.2804C13.5959 17 13.8325 16.7113 13.7707 16.4019L11.9707 7.40194C11.9239 7.16823 11.7187 7 11.4804 7H10.8903H9.89027H8.89027H8.30017ZM9.49027 9L8.69027 13H11.0903L10.2903 9H9.49027ZM14.8903 7.80012C14.8903 7.5201 14.8903 7.38008 14.9448 7.27313C14.9927 7.17905 15.0692 7.10256 15.1633 7.05462C15.2702 7.00012 15.4102 7.00012 15.6903 7.00012H16.0903C16.3703 7.00012 16.5103 7.00012 16.6173 7.05462C16.7113 7.10256 16.7878 7.17905 16.8358 7.27313C16.8903 7.38008 16.8903 7.5201 16.8903 7.80012V16.2001C16.8903 16.4801 16.8903 16.6202 16.8358 16.7271C16.7878 16.8212 16.7113 16.8977 16.6173 16.9456C16.5103 17.0001 16.3703 17.0001 16.0903 17.0001H15.6903C15.4102 17.0001 15.2702 17.0001 15.1633 16.9456C15.0692 16.8977 14.9927 16.8212 14.9448 16.7271C14.8903 16.6202 14.8903 16.4801 14.8903 16.2001V7.80012Z" fill="#313234"/>
</svg>

<svg xmlns="http://www.w3.org/2000/svg" width="24" height="24" fill="none" viewBox="0 0 24 24"><path fill="#313234" fill-rule="evenodd" d="M6 4a4 4 0 0 0-4 4v8a4 4 0 0 0 4 4h12a4 4 0 0 0 4-4V8a4 4 0 0 0-4-4zm2.3 3a.5.5 0 0 0-.49.402l-1.8 9A.5.5 0 0 0 6.5 17h.98a.5.5 0 0 0 .49-.402L8.29 15h3.2l.32 1.598a.5.5 0 0 0 .49.402h.98a.5.5 0 0 0 .49-.598l-1.8-9A.5.5 0 0 0 11.48 7H8.3m1.19 2-.8 4h2.4l-.8-4zm5.4-1.2c0-.28 0-.42.055-.527a.5.5 0 0 1 .218-.218C15.27 7 15.41 7 15.69 7h.4c.28 0 .42 0 .527.055a.5.5 0 0 1 .219.218c.054.107.054.247.054.527v8.4c0 .28 0 .42-.054.527a.5.5 0 0 1-.219.219C16.51 17 16.37 17 16.09 17h-.4c-.28 0-.42 0-.527-.054a.5.5 0 0 1-.218-.219c-.055-.107-.055-.247-.055-.527z" clip-rule="evenodd"/></svg>
